src/assets/icons/GooglePodcast.svg

<?xml version="1.0" encoding="UTF-8"?>
<svg width="24px" height="24px" viewBox="0 0 24 24" version="1.1" xmlns="http://www.w3.org/2000/svg" xmlns:xlink="http://www.w3.org/1999/xlink">
    <!-- Generator: Sketch 60 (88103) - https://sketch.com -->
    <title>09 Icons / Social / Google podcast</title>
    <desc>Created with Sketch.</desc>
    <g stroke="none" stroke-width="1" fill="none" fill-rule="evenodd">
        <path d="M11.877913,19.1486087 C12.7001739,19.1486087 13.3666957,19.8153913 13.3666957,20.6373913 C13.3666957,20.699274 13.3629205,20.7602745 13.355588,20.8201753 L13.3557342,22.0740919 C13.3629727,22.133564 13.3666957,22.1941311 13.3666957,22.2555652 C13.3666957,23.0778261 12.7001739,23.7443478 11.877913,23.7443478 C11.0556522,23.7443478 10.3891304,23.0778261 10.3891304,22.2555652 L10.3891304,20.6373913 C10.3891304,19.8153913 11.0556522,19.1486087 11.877913,19.1486087 Z M6.61304348,14.4234783 C7.43504348,14.4234783 8.10182609,15.09 8.10182609,15.9122609 C8.10182609,15.9703724 8.09849574,16.0277061 8.09201562,16.0840816 L8.09213169,17.3596269 C8.0985355,17.4156762 8.10182609,17.4726712 8.10182609,17.5304348 C8.10182609,18.3526957 7.43504348,19.0192174 6.61304348,19.0192174 C5.79078261,19.0192174 5.12426087,18.3526957 5.12426087,17.5304348 L5.12452174,15.9122609 C5.12426087,15.09 5.79078261,14.4234783 6.61304348,14.4234783 Z M17.1313043,10.788 C17.9051969,10.788 18.5411337,11.3784137 18.613272,12.1333984 L18.620087,12.2767826 L18.620087,17.5416522 L18.6185217,17.541 L18.613272,17.673819 C18.5411337,18.4288037 17.9051969,19.0192174 17.1313043,19.0192174 C16.3090435,19.0192174 15.6425217,18.3526957 15.6425217,17.5304348 C15.6425217,17.4723928 15.6458428,17.4151269 15.6523053,17.3588166 L15.6523286,12.4486033 C15.6458508,12.3922278 15.6425217,12.3348941 15.6425217,12.2767826 C15.6425217,11.4545217 16.3090435,10.788 17.1313043,10.788 Z M11.877913,6.06286957 C12.7001739,6.06286957 13.3666957,6.7293913 13.3666957,7.55165217 C13.3666957,7.60976371 13.3633666,7.66709739 13.3568888,7.7234729 L13.3568888,16.0103924 C13.3633666,16.0667814 13.3666957,16.1241309 13.3666957,16.1822609 C13.3666957,17.0042609 12.7001739,17.6710435 11.877913,17.6710435 C11.0556522,17.6710435 10.3891304,17.0042609 10.3891304,16.1822609 L10.3891304,7.55165217 C10.3891304,6.7293913 11.0556522,6.06286957 11.877913,6.06286957 Z M1.48878261,9.56895652 C2.26267519,9.56895652 2.89861201,10.1593702 2.97075027,10.9143549 L2.97756522,11.0577391 L2.97756522,12.675913 C2.97756522,13.4981739 2.31104348,14.1646957 1.48878261,14.1646957 C0.666521739,14.1646957 1.10023102e-12,13.4981739 1.10023102e-12,12.675913 C1.10023102e-12,12.6178199 0.00332904617,12.5605021 0.00980683907,12.5041401 L0.00969081028,11.228547 C0.00328929672,11.1724977 9.22373289e-13,11.1155027 9.22373289e-13,11.0577391 C9.22373289e-13,10.2354783 0.666521739,9.56895652 1.48878261,9.56895652 Z M22.2555652,9.56895652 C23.0294578,9.56895652 23.6653946,10.1593702 23.7375329,10.9143549 L23.7443478,11.0577391 L23.7443478,12.675913 C23.7443478,13.4981739 23.0778261,14.1646957 22.2555652,14.1646957 C21.4333043,14.1646957 20.7667826,13.4981739 20.7667826,12.675913 L20.777127,12.4995267 L20.7771516,11.2344144 C20.7703061,11.1764857 20.7667826,11.1175241 20.7667826,11.0577391 C20.7667826,10.2354783 21.4333043,9.56895652 22.2555652,9.56895652 Z M6.48878261,5 C7.26267519,5 7.89861201,5.59041372 7.97075027,6.34539838 L7.97756522,6.48878261 L7.97756522,11.7536522 L7.976,11.753 L7.97075027,11.885819 C7.89861201,12.6408037 7.26267519,13.2312174 6.48878261,13.2312174 C5.66652174,13.2312174 5,12.5646957 5,11.7424348 C5,11.6843928 5.00332108,11.6271269 5.00978358,11.5708166 L5.00980684,6.66060333 C5.00332905,6.60422782 5,6.54689415 5,6.48878261 C5,5.66652174 5.66652174,5 6.48878261,5 Z M17.1313043,4.71443478 C17.9051969,4.71443478 18.5411337,5.3048485 18.613272,6.05983317 L18.620087,6.20321739 L18.620087,7.8213913 C18.620087,8.64365217 17.9535652,9.31043478 17.1313043,9.31043478 C16.3090435,9.31043478 15.6425217,8.64365217 15.6425217,7.8213913 L15.6528661,7.64500499 L15.6528907,6.37989269 C15.6460453,6.32196397 15.6425217,6.26300234 15.6425217,6.20321739 C15.6425217,5.38095652 16.3090435,4.71443478 17.1313043,4.71443478 Z M11.877913,3.64819286e-13 C12.7001739,3.64819286e-13 13.3666957,0.666521739 13.3666957,1.48904348 C13.3666957,1.55047759 13.3629727,1.61104326 13.35574,1.67052713 L13.3557355,2.92538235 C13.3629708,2.98488865 13.3666957,3.04548741 13.3666957,3.10695652 C13.3666957,3.92921739 12.7001739,4.59573913 11.877913,4.59573913 C11.0556522,4.59573913 10.3891304,3.92921739 10.3891304,3.10695652 L10.3891304,1.48904348 C10.3891304,0.666521739 11.0556522,3.64819286e-13 11.877913,3.64819286e-13 Z" fill="#000000"></path>
    </g>
</svg>

<svg width="24" height="24" viewBox="0 0 24 24" xmlns="http://www.w3.org/2000/svg"><path d="M11.878 19.149a1.489 1.489 0 011.478 1.671v1.254a1.489 1.489 0 11-2.967.181v-1.618c0-.822.667-1.488 1.489-1.488zm-5.265-4.726a1.489 1.489 0 011.479 1.661v1.276a1.489 1.489 0 11-2.968.17v-1.618c0-.822.667-1.489 1.489-1.489zm10.518-3.635c.774 0 1.41.59 1.482 1.345l.007.144v5.265l-.001-.001-.006.133a1.489 1.489 0 11-2.96-.315v-4.91a1.489 1.489 0 011.479-1.66zm-5.253-4.725a1.489 1.489 0 011.479 1.66v8.287a1.489 1.489 0 11-2.968.172v-8.63c0-.823.667-1.49 1.489-1.49zM1.488 9.569c.775 0 1.41.59 1.483 1.345l.007.144v1.618a1.489 1.489 0 11-2.968-.172V11.23a1.489 1.489 0 011.48-1.66zm20.768 0c.773 0 1.41.59 1.482 1.345l.006.144v1.618a1.489 1.489 0 11-2.977 0l.01-.176v-1.266a1.489 1.489 0 011.478-1.665zM6.489 5c.774 0 1.41.59 1.482 1.345l.007.144v5.265l-.002-.001-.005.133a1.489 1.489 0 11-2.961-.315V6.66A1.489 1.489 0 016.489 5zm10.642-.286c.774 0 1.41.59 1.482 1.346l.007.143v1.618a1.489 1.489 0 11-2.977 0l.01-.176V6.38a1.489 1.489 0 011.478-1.665zM11.878 0a1.489 1.489 0 011.478 1.67v1.255a1.489 1.489 0 11-2.967.182V1.489C10.39.667 11.056 0 11.878 0z" fill="#000" fill-rule="evenodd"/></svg>
